X: 3358
M: C
L: 1/8
K: F
(c>B) |\
(3Acf (3agf e>d^c>d | g>da>d b2a2 |\
(3gag (3fed c>^cd>B | A>c=B>d c2(c>_B) |\
(3Acf (3agf e>d^c>d | g>da>d b2a2 |\
c>=Bc>d e>fa>g | f2a2 f2 :|
|: A2 |\
(3aba e2 (3aba e2 | (3fgf (3efe d2A2 |\
(3aba (3gag (3fgf (3efe | d2f2 d2 :|


